icons/square/48/waterfox.svg

<svg xmlns="http://www.w3.org/2000/svg" version="1.1" viewBox="0 0 48 48">
	<defs>
		<linearGradient id="bg" gradientUnits="userSpaceOnUse" x1="0" x2="0" y1="1" y2="47">
			<stop offset="0" stop-color="#39569d"/>
			<stop offset="1" stop-color="#344e8e"/>
		</linearGradient>
	</defs>
	<path opacity=".02" d="m1 43v0.25c0 2.216 1.784 4 4 4h38c2.216 0 4-1.784 4-4v-0.25c0 2.216-1.784 4-4 4h-38c-2.216 0-4-1.784-4-4zm0 0.5v0.5c0 2.216 1.784 4 4 4h38c2.216 0 4-1.784 4-4v-0.5c0 2.216-1.784 4-4 4h-38c-2.216 0-4-1.784-4-4z"/>
	<path opacity=".05" d="m1 43.25v0.25c0 2.216 1.784 4 4 4h38c2.216 0 4-1.784 4-4v-0.25c0 2.216-1.784 4-4 4h-38c-2.216 0-4-1.784-4-4z"/>
	<path opacity=".1" d="m1 43v0.25c0 2.216 1.784 4 4 4h38c2.216 0 4-1.784 4-4v-0.25c0 2.216-1.784 4-4 4h-38c-2.216 0-4-1.784-4-4z"/>
	<rect fill="url(#bg)" rx="4" height="46" width="46" y="1" x="1"/>
	<path opacity=".1" d="m1 39v4c0 2.216 1.784 4 4 4h38c2.216 0 4-1.784 4-4v-4c0 2.216-1.784 4-4 4h-38c-2.216 0-4-1.784-4-4z"/>
	<g transform="translate(0 -1)">
		<circle fill="#252f3c" cx="24" cy="24" r="12"/>
		<path d="M 24.8609,6.62759 C 23.5196,6.76323 22.4389,8.04977 22,9.13393 A 15,15 0 1,0 39,24 C 39,19 36,18 35.5594,14.4406 C 32.5,17.5 32,19 32,22 S 33,26.5 33,28.5 S 32,33 29,34.9087 C 32,29 28,25.5 28,25.5 A 5.5,5.5 0 1,1 22.5,20 S 21.7595,17.5377 17,17 C 21,15 23,16 26,16 S 30.5,15.5 33.5594,12.4406 C 30,12 27.8052,9.71753 25,9.03337 C 25.1834,8.23498 25.5148,7.50964 26.3734,6.99444 C 25.8458,6.67788 25.3378,6.57936 24.8609,6.62759 Z" opacity=".1" transform="translate(0 1)"/>
		<path d="M 24.8609,6.62759 C 23.5196,6.76323 22.4389,8.04977 22,9.13393 A 15,15 0 1,0 39,24 C 39,19 36,18 35.5594,14.4406 C 32.5,17.5 32,19 32,22 S 33,26.5 33,28.5 S 32,33 29,34.9087 C 32,29 28,25.5 28,25.5 A 5.5,5.5 0 1,1 22.5,20 S 21.7595,17.5377 17,17 C 21,15 23,16 26,16 S 30.5,15.5 33.5594,12.4406 C 30,12 27.8052,9.71753 25,9.03337 C 25.1834,8.23498 25.5148,7.50964 26.3734,6.99444 C 25.8458,6.67788 25.3378,6.57936 24.8609,6.62759 Z" fill="#3490b5"/>
	</g>
</svg>

<svg version="1.1" viewBox="0 0 48 48" xmlns="http://www.w3.org/2000/svg">
 <defs>
  <linearGradient id="bg" x2="0" y1="1" y2="47" gradientUnits="userSpaceOnUse">
   <stop stop-color="#39569d" offset="0"/>
   <stop stop-color="#344e8e" offset="1"/>
  </linearGradient>
 </defs>
 <path d="m1 43v0.25c0 2.216 1.784 4 4 4h38c2.216 0 4-1.784 4-4v-0.25c0 2.216-1.784 4-4 4h-38c-2.216 0-4-1.784-4-4zm0 0.5v0.5c0 2.216 1.784 4 4 4h38c2.216 0 4-1.784 4-4v-0.5c0 2.216-1.784 4-4 4h-38c-2.216 0-4-1.784-4-4z" opacity=".02"/>
 <path d="m1 43.25v0.25c0 2.216 1.784 4 4 4h38c2.216 0 4-1.784 4-4v-0.25c0 2.216-1.784 4-4 4h-38c-2.216 0-4-1.784-4-4z" opacity=".05"/>
 <path d="m1 43v0.25c0 2.216 1.784 4 4 4h38c2.216 0 4-1.784 4-4v-0.25c0 2.216-1.784 4-4 4h-38c-2.216 0-4-1.784-4-4z" opacity=".1"/>
 <rect x="1" y="1" width="46" height="46" rx="4" fill="url(#bg)"/>
 <path d="m1 39v4c0 2.216 1.784 4 4 4h38c2.216 0 4-1.784 4-4v-4c0 2.216-1.784 4-4 4h-38c-2.216 0-4-1.784-4-4z" opacity=".1"/>
 <circle cx="24" cy="23" r="12" fill="#252f3c" style="fill:#2d3949"/>
 <path d="m24.861 6.6276c-1.3413 0.13564-2.422 1.4222-2.8609 2.5063a15 15 0 1 0 17 14.866c0-5-3-6-3.4406-9.5594-3.0594 3.0594-3.5594 4.5594-3.5594 7.5594s1 4.5 1 6.5-1 4.5-4 6.4087c3-5.9087-1-9.4087-1-9.4087a5.5 5.5 0 1 1-5.5-5.5s-0.7405-2.4623-5.5-3c4-2 6-1 9-1s4.5-0.5 7.5594-3.5594c-3.5594-0.4406-5.7542-2.7231-8.5594-3.4072 0.1834-0.79839 0.5148-1.5237 1.3734-2.0389-0.5276-0.31656-1.0356-0.41508-1.5125-0.36685z" opacity=".1"/>
 <path d="m24.861 5.6276c-1.3413 0.13564-2.422 1.4222-2.8609 2.5063a15 15 0 1 0 17 14.866c0-5-3-6-3.4406-9.5594-3.0594 3.0594-3.5594 4.5594-3.5594 7.5594s1 4.5 1 6.5-1 4.5-4 6.4087c3-5.9087-1-9.4087-1-9.4087a5.5 5.5 0 1 1-5.5-5.5s-0.7405-2.4623-5.5-3c4-2 6-1 9-1s4.5-0.5 7.5594-3.5594c-3.5594-0.4406-5.7542-2.7231-8.5594-3.4072 0.1834-0.79839 0.5148-1.5237 1.3734-2.0389-0.5276-0.31656-1.0356-0.41508-1.5125-0.36685z" fill="#3490b5" style="fill:#399ec6"/>
</svg>
